src/assets/duotone/ArrowSquareUp.svg

<svg width="24" height="24" viewBox="0 0 24 24"  xmlns="http://www.w3.org/2000/svg">
<path opacity="0.4" d="M16.19 2H7.81C4.17 2 2 4.17 2 7.81V16.18C2 19.83 4.17 22 7.81 22H16.18C19.82 22 21.99 19.83 21.99 16.19V7.81C22 4.17 19.83 2 16.19 2Z" />
<path d="M15.5302 14.2101C15.3402 14.2101 15.1502 14.1401 15.0002 13.9901L12.0002 10.9901L9.00016 13.9901C8.71016 14.2801 8.23016 14.2801 7.94016 13.9901C7.65016 13.7001 7.65016 13.2201 7.94016 12.9301L11.4702 9.40012C11.7602 9.11012 12.2402 9.11012 12.5302 9.40012L16.0602 12.9301C16.3502 13.2201 16.3502 13.7001 16.0602 13.9901C15.9102 14.1401 15.7202 14.2101 15.5302 14.2101Z" />
</svg>

<?xml version="1.0" encoding="UTF-8"?>
<svg width="24" height="24" viewBox="0 0 24 24" xmlns="http://www.w3.org/2000/svg">
 <path d="M16.19 2H7.81C4.17 2 2 4.17 2 7.81V16.18C2 19.83 4.17 22 7.81 22H16.18C19.82 22 21.99 19.83 21.99 16.19V7.81C22 4.17 19.83 2 16.19 2Z" opacity=".4"/>
 <path d="m15.53 14.21c-0.19 0-0.38-0.07-0.53-0.22l-3-3-3 3c-0.29 0.29-0.77 0.29-1.06 0s-0.29-0.77 0-1.06l3.53-3.53c0.29-0.29 0.77-0.29 1.06 0l3.53 3.53c0.29 0.29 0.29 0.77 0 1.06-0.15 0.15-0.34 0.22-0.53 0.22z"/>
</svg>
